<?xml version="1.0" encoding="UTF-8"?>
<map version="1.11" tiledversion="1.12.2" orientation="orthogonal" renderorder="right-down" width="17" height="12" tilewidth="40" tileheight="40" infinite="0" nextlayerid="6" nextobjectid="18">
 <editorsettings>
  <export target="room3.lua" format="lua"/>
 </editorsettings>
 <properties>
  <property name="light" type="bool" value="true"/>
  <property name="name" value="Test Map - Room 2"/>
  <property name="name_id" value="map_room2_name"/>
 </properties>
 <tileset firstgid="1" source="../tilesets/castle.tsx"/>
 <layer id="1" name="tiles" width="17" height="12">
  <data encoding="csv">
0,27,23,23,21,21,21,23,27,27,21,23,21,27,27,27,0,
0,27,23,23,23,21,23,27,23,23,21,21,21,23,27,24,0,
0,26,27,27,21,21,21,27,27,27,21,23,21,23,27,23,0,
0,6,7,7,7,7,7,7,7,7,7,7,7,7,7,8,0,
0,10,11,11,11,11,11,11,11,11,11,11,11,11,11,12,0,
0,10,11,11,11,11,11,11,11,11,11,11,11,11,11,11,7,
0,10,11,11,11,11,11,11,11,11,11,11,11,11,11,11,15,
0,10,11,11,11,11,11,11,11,11,11,11,11,11,11,12,0,
0,10,11,11,11,11,11,11,11,11,11,11,11,11,11,12,0,
0,14,15,15,15,15,15,15,15,15,15,15,15,15,15,16,0,
0,0,0,0,0,0,0,0,0,0,0,0,0,0,0,0,0,
0,0,0,0,0,0,0,0,0,0,0,0,0,0,0,0,0
</data>
 </layer>
 <layer id="2" name="decal" width="17" height="12">
  <data encoding="csv">
0,0,0,0,0,0,0,0,0,0,0,0,0,0,0,0,0,
0,0,0,0,0,0,0,0,0,0,0,0,0,0,0,0,0,
0,0,0,0,0,0,0,0,0,0,0,0,0,0,0,0,0,
0,0,0,0,0,0,0,0,0,0,0,0,0,0,0,0,0,
0,0,0,0,0,0,0,0,0,0,0,0,0,0,0,0,0,
0,0,0,0,0,0,0,30,31,32,0,0,0,0,0,0,0,
0,0,0,0,0,0,0,34,35,36,0,0,0,0,0,0,0,
0,0,0,0,0,0,0,38,39,40,0,0,0,0,0,0,0,
0,0,0,0,0,0,0,0,0,0,0,0,0,0,0,0,0,
0,0,0,0,0,0,0,0,0,0,0,0,0,0,0,0,0,
0,0,0,0,0,0,0,0,0,0,0,0,0,0,0,0,0,
0,0,0,0,0,0,0,0,0,0,0,0,0,0,0,0,0
</data>
 </layer>
 <objectgroup color="#0000ff" id="3" name="collision" opacity="0.5">
  <object id="1" x="0" y="120" width="40" height="280"/>
  <object id="4" x="40" y="80" width="600" height="40"/>
  <object id="12" x="40" y="400" width="600" height="40"/>
  <object id="13" x="640" y="280" width="40" height="120"/>
  <object id="14" x="640" y="120" width="40" height="80"/>
 </objectgroup>
 <objectgroup color="#7f00ff" id="4" name="markers">
  <object id="5" name="spawn" x="240" y="240">
   <point/>
  </object>
  <object id="8" name="entry" x="640" y="240">
   <point/>
  </object>
 </objectgroup>
 <objectgroup color="#ff00ff" id="5" name="objects">
  <object id="9" name="transition" x="680" y="200" width="40" height="80">
   <properties>
    <property name="map" value="room1"/>
    <property name="marker" value="entry1"/>
   </properties>
  </object>
  <object id="16" name="npc" x="440" y="160" width="40" height="40">
   <properties>
    <property name="actor" value="starwalker"/>
    <property name="text1" value="{world_room1_starwalker_1}"/>
    <property name="text2" value="{world_room1_starwalker_2}"/>
   </properties>
  </object>
 </objectgroup>
</map>
